!!!!SEGMENT: pl-wumfc--n28541--002_moniuszko-stanislaw--verbum-nobile-1-wiejska-serenada.krn
!!!cenid: 18xx:4208
!!!COM: Moniuszko, Stanisław
!!!COM-rismID: pe30008351
!!!CDT: 1819/05/05-1872/06/04
!!!CNT: Polish
!!!GTL: Verbum nobile
!!!OTL: 1. Wiejska serenada
!!!OMV: 002
!!!PDT:
!!!AGN:
!!!SMS-siglum: PL-Wumfc
!!!SMS-shelfmark: N28541
!!!SMS-variant:
!!!SMS-altvar:
!!!SMS-shelfwork: 001-002 G
!!!NIFC-rismSourceID: 1001152972
!!!NIFC-rismChildID: 1001152972
!!!NIFC-islandoraID: pl-wumfc:3225
!!!URL-pdf-islandora: https://repozytorium.nifc.pl/islandora/object/pl-wumfc:3225/datastream/PDF/view
!!!URL-scan: https://polish.musicsources.pl/pl/lokalizacje/galeria/druki-muzyczne/12012/11 @EN{Scan on Polish Music Sources Website} @PL{Skany w portalu Dziedzictwo Muzyki Polskiej w otwartym dostępie}
!!!ONB-nifc: Skany 0011-0013
!!!OMD: Moderato. [quarter]=72.
!!!AIN: 1 piano 2 vox
!!!key: F
**kern	**kern	**dynam	**kern	**text	**dynam	**kern	**text	**dynam
*part3	*part3	*part3	*part2	*part2	*part2	*part1	*part1	*part1
*staff4	*staff3	*	*staff2	*staff2	*	*staff1	*staff1	*
*I"Piano.	*I"Piano.	*	*I"[Voce 2]	*	*	*I"[Voce 1]	*	*
*I'	*I'	*	*I'	*	*	*I'	*	*
*Ipiano	*Ipiano	*	*Ivox	*	*	*Ivox	*	*
*ICklav	*ICklav	*	*ICvox	*	*	*ICvox	*	*
*IGacmp	*IGacmp	*	*IGsolo	*	*	*IGsolo	*	*
*clefF4	*clefG2	*	*clefG2	*	*	*clefG2	*	*
*k[b-]	*k[b-]	*	*k[b-]	*	*	*k[b-]	*	*
*F:	*F:	*	*F:	*	*	*F:	*	*
*M3/4	*M3/4	*	*M3/4	*	*	*M3/4	*	*
=1	=1	=1	=1	=1	=1	=1	=1	=1
2.FF\	8r<	p	2.r	.	.	2.r	.	.
.	(<8C</L	.	.	.	.	.	.	.
.	8A< 8F</	.	.	.	.	.	.	.
.	8C</	.	.	.	.	.	.	.
.	8c< 8A< 8F</	.	.	.	.	.	.	.
.	8C</J)	.	.	.	.	.	.	.
=2	=2	=2	=2	=2	=2	=2	=2	=2
!	!	!	!LO:TX:a:i:t=Drugi głos dowolnie.	!	!	!	!	!
2.FF\	8r<	.	2.r	.	.	2.r	.	.
.	(<8C</L	.	.	.	.	.	.	.
.	8A< 8F</	.	.	.	.	.	.	.
.	8C</	.	.	.	.	.	.	.
.	8c< 8A< 8F</	.	.	.	.	.	.	.
.	8C</J)	.	.	.	.	.	.	.
*	*clefG2	*	*	*	*	*	*	*
=3	=3	=3	=3	=3	=3	=3	=3	=3
*^	*	*	*	*	*	*	*	*
!LO:N:vis=2	!	!	!	!	!	!	!	!	!
(<8FF/L	2.FF\	8fL 8A/	.	8f/	Jak	p	8a/	Jak	p
8C/	.	8aJ 8c/	.	8a/	li-	.	8cc\	li-	.
8F/	.	(4c 4A/	.	4.c/	-li-	.	4.cc\	-li-	.
8C/	.	.	.	.	.	.	.	.	.
8G/	.	4e 4B-/)	.	.	.	.	.	.	.
8C/J)	.	.	.	8e/	-ja	.	8g/	-ja	.
!!LO:LB:g=original
=4	=4	=4	=4	=4	=4	=4	=4	=4	=4
!LO:N:vis=2	!	!	!	!	!	!	!	!	!
(<8FF/L	2.FF\	8fL 8A/	.	8f/	co	.	8a/	co	.
8C/	.	8aJ 8c/	.	8a/	roz-	.	8cc\	roz-	.
8F/	.	(4c 4A/	.	4.c/	-wi-	.	4.cc\	-wi-	.
8C/	.	.	.	.	.	.	.	.	.
8G/	.	4e 4B-/)	.	.	.	.	.	.	.
8C/J)	.	.	.	8e/	-ja	.	8g/	-ja	.
=5	=5	=5	=5	=5	=5	=5	=5	=5	=5
!LO:N:vis=2	!	!	!	!	!	!	!	!	!
(<8FF/L	2.FF\	8fL 8A/	.	8f/	z_wios-	<	8a/	z_wios-	<
8C/	.	8c/J	<	8g/	-ną	.	8b-\	-ną	.
8F/	.	(4cc 4a/	.	(4a/	świe-	.	(4cc\	świe-	.
8C/	.	.	.	.	.	.	.	.	.
8F/	.	4b- 4g/)	.	8b-/)	.	.	8dd\)	.	.
8C/J)	.	.	[	8g/	-ży	[	8ee\	-ży	[
*v	*v	*	*	*	*	*	*	*	*
=6	=6	=6	=6	=6	=6	=6	=6	=6
(8FF/L	(8aL 8f/	>	2a/	kwiat	.	2ff\	kwiat	.
8C/	8cc/J	.	.	.	.	.	.	.
8A/	4ff 4f\)	.	.	.	.	.	.	.
8C/	.	]	.	.	.	.	.	.
8AA/	4ee 4cc\	.	4r	.	.	4r	.	.
8F/J)	.	.	.	.	.	.	.	.
=7	=7	=7	=7	=7	=7	=7	=7	=7
(8BB-\L	8ddL 8b-'\	.	8b-\	z_ła-	.	8dd\	z_ła-	.
8F\	8ddJ 8f\	.	8b-\	-ską	.	8dd\	-ską	.
8B-\)	(4.dd (4.f/	.	4.dd^\	Bo-	.	4.ff^\	Bo-	.
8F\	.	.	.	.	.	.	.	.
8G\	.	.	.	.	.	.	.	.
8GG\J	8b- 8d/))	.	8b-\	-żą	.	8dd\	-żą	.
!!LO:PB:g=original
=8	=8	=8	=8	=8	=8	=8	=8	=8
8C'\L	(4.b- 4.e^>/	.	4.b-^\	wzro-	.	4.dd^\	wzro-	.
(8G\	.	.	.	.	.	.	.	.
8C\	.	.	.	.	.	.	.	.
8G\	8g/L)	.	8e/	-słaś	.	8cc\	-słaś	.
8C\	8cc 8e'/	.	8g/	ho-	.	8b-\	ho-	.
8c\J)	8b-J 8g'/	.	8c/	-żo	.	8g/	-żo	.
=9	=9	=9	=9	=9	=9	=9	=9	=9
*	*^	*	*	*	*	*	*	*
8F'\L	8aL 8f'/	4ryy	.	8f/	o-	.	8a/	o-	.
8E'\J	8gJ 8c'/	.	.	8c/	-bok	.	8g/	-bok	.
4D\	(4a/	8f\L	.	4f/	na-	.	4a/	na-	.
.	.	8e\	.	.	.	.	.	.	.
4G 4GG\	4bn/	8d\	.	4f/	-szych	.	4bn\	-szych	.
.	.	8g\J	.	.	.	.	.	.	.
=10	=10	=10	=10	=10	=10	=10	=10	=10	=10
*^	*	*	*	*	*	*	*	*	*
4A 4C\	4rEEyy	(4.cc/)	(8f\L	.	4c/	chat;	.	4cc\	chat;	.
.	.	.	8c\J	.	.	.	.	.	.	.
4A/	8A\L	.	4f\	.	4r	.	.	4r	.	.
.	8C\	8cc#X/L	.	.	.	.	.	.	.	.
.	.	8qee/	.	.	.	.	.	.	.	.
4G/	8G\	8dd/	4e\)	.	4r	.	.	4r	.	.
.	8C\J	8b-/J)	.	.	.	.	.	.	.	.
*	*	*v	*v	*	*	*	*	*	*	*
=11	=11	=11	=11	=11	=11	=11	=11	=11	=11
(<8F/L	2.FF\	(8aL 8f/	.	8f/	gdy	.	8a/	gdy	.
8C/	.	8ccJ 8a/)	.	8a/	w_po-	.	8cc\	w_po-	.
8F/	.	4f 4A/	.	4.c/	-cie-	.	4.cc\	-cie-	.
8C/	.	.	.	.	.	.	.	.	.
8E/	.	4g 4c/	.	.	.	.	.	.	.
8C/J)	.	.	.	8e/	-chę	.	8g/	-chę	.
!!LO:LB:g=original
=12	=12	=12	=12	=12	=12	=12	=12	=12	=12
(<8F/L	2.FF\	(8aL 8f/	.	8f/	oj-	.	8a/	oj-	.
8C/	.	8ccJ 8a/)	.	8f/	-ców	.	8dd\	-ców	.
8F/	.	4f 4A/	.	4.c/	strze-	.	4.cc\	strze-	.
8C/	.	.	.	.	.	.	.	.	.
8E/	.	4g 4c/	.	.	.	.	.	.	.
8C/J)	.	.	.	8e/	-chę	.	8g/	-chę	.
=13	=13	=13	=13	=13	=13	=13	=13	=13	=13
*	*	*^	*	*	*	*	*	*	*
(<8F/L	2.FF\	8aL 8f/	2ryy	.	8f/	przy-	<	8a/	przy-	<
8C/	.	8b-J 8g/	.	<	8g/	-o-	.	8b-\	-o-	.
8F/	.	4cc 4a\	.	.	(4a/	-zdo-	.	(4cc\	-zdo-	.
8C/	.	.	.	.	.	.	.	.	.	.
8F/	.	8dd/L	4b-\	.	8b-/)	.	[	8dd\)	.	[
8C/J)	.	8ee/J	.	[	8g/	-bił	.	8ee\	-bił	.
*v	*v	*	*	*	*	*	*	*	*	*
=14	=14	=14	=14	=14	=14	=14	=14	=14	=14
(8FF/L	(2ff/	[2a\	>	(2a/	Bóg	>	(2ff\	Bóg	>
8C/	.	.	.	.	.	.	.	.	.
8F/)	.	.	.	.	.	.	.	.	.
8A'/	.	.	.	.	.	.	.	.	.
8c'/	4ee/)	8a\L]	]	4cc\)	.	]	4ee\)	.	]
8A'/J	.	8cc\J	.	.	.	.	.	.	.
*	*v	*v	*	*	*	*	*	*	*
=15	=15	=15	=15	=15	=15	=15	=15	=15
*^	*	*	*	*	*	*	*	*
8B-/L	2BB-\	8.ddL 8.b-\	.	8.b-\	z_ich	.	8.dd\	z_ich	.
8F/J	.	.	.	.	.	.	.	.	.
.	.	16ddJk 16b-\	.	16b-\	we-	.	16dd\	we-	.
8B-/L	.	(4.ff 4.dd 4.f^\	.	4.dd^\	-se-	.	4.ff^\	-se-	.
8F/	.	.	.	.	.	.	.	.	.
8G/	4GG\	.	.	.	.	.	.	.	.
8G/J	.	8dd 8b- 8f/)	.	8b-\	-la	.	8dd\	-la	.
*v	*v	*	*	*	*	*	*	*	*
!!LO:LB:g=original
=16	=16	=16	=16	=16	=16	=16	=16	=16
8C\L	(>4.dd 4.b- 4.e^/	.	4.b-^/	dość	.	4.dd^\	dość	.
8G\	.	.	.	.	.	.	.	.
8c\	.	.	.	.	.	.	.	.
8G\	8ccL 8e/)	.	8e/	u-	.	8cc\	u-	.
8C\	8b- 8g 8e'/	.	8g/	-dzie-	.	8b-\	-dzie-	.
8C\J	8gJ 8e 8c'/	.	8e/	-la	.	8g/	-la	.
=17	=17	=17	=17	=17	=17	=17	=17	=17
*	*^	*	*	*	*	*	*	*
8F/L	8aL 8f 8c/	2ryy	.	8f/	i	.	8a/	i	.
8AA/J	8aJ 8f 8c/	.	.	8e/	w_nasz	.	8a/	w_nasz	.
4GG/	4b- 4g 4d/	.	.	4d/	li-	.	4b-/	li-	.
4C/	4g 4e/	8c\L	.	4e/	-chy	.	4g/	-chy	.
.	.	8B-\J	.	.	.	.	.	.	.
=18	=18	=18	=18	=18	=18	=18	=18	=18	=18
!LO:TX:t=P:problem=mixed beam	!	!	!	!	!	!	!	!	!
(8FF/L	2f/	4.A\	.	2f/	próg.	.	2f/	próg.	.
8C/	.	.	.	.	.	.	.	.	.
8F/	.	.	.	.	.	.	.	.	.
8A/	.	8rcyy	.	.	.	.	.	.	.
8c>\	4raayy	4ryy	.	4r	.	.	4r	.	.
8f>\J)	.	.	.	.	.	.	.	.	.
*	*v	*v	*	*	*	*	*	*	*
=19	=19	=19	=19	=19	=19	=19	=19	=19
8DD\L	8.aL 8.f 8.c/	.	8.f/	Toć	.	8.a/	Toć	.
8D\	.	.	.	.	.	.	.	.
.	16aJk 16f 16c/	.	16f/	w_szcze-	.	16a/	w_szcze-	.
8A\	4a 4f 4c/	.	4f/	-roś-	.	4a/	-roś-	.
8D\	.	.	.	.	.	.	.	.
8A\	4cc 4f 4c/	.	4f/	-ci	.	4cc\	-ci	.
8D\J	.	.	.	.	.	.	.	.
!!LO:PB:g=original
=20	=20	=20	=20	=20	=20	=20	=20	=20
8GG\L	8bnL 8f 8d/	.	8f/	pro-	.	8bn/	pro-	.
8D\	8aJ 8f 8c/	.	8f/	-stych	.	8a/	-stych	.
8G\	4g 4f 4Bn/	.	4f/	go-	.	4g/	go-	.
8D\	.	.	.	.	.	.	.	.
8G\	4g 4f 4B/	.	4f/	-ści	.	4g/	-ści	.
8GG\J	.	.	.	.	.	.	.	.
=21	=21	=21	=21	=21	=21	=21	=21	=21
8DD\L	8.aL 8.f 8.c/	.	8.f/	przyjm	.	8.a/	przyjm	.
8D\	.	.	.	.	.	.	.	.
.	16aJk 16f 16c/	.	16f/	pa-	.	16a/	pa-	.
8A\	4a 4f 4c/	.	4f/	-nien-	.	4a/	-nien-	.
8D\	.	.	.	.	.	.	.	.
8c\	4dd 4a 4f/	.	4f/	-ko	.	4dd\	-ko	.
8D\J	.	.	.	.	.	.	.	.
=22	=22	=22	=22	=22	=22	=22	=22	=22
*	*^	*	*	*	*	*	*	*
8BnL 8GG\	(2dd/	2f\	<	(2.f/	tu	.	(2dd\	tu	.
8G\	.	.	.	.	.	.	.	.	.
8d\	.	.	.	.	.	.	.	.	.
8B\J	.	.	.	.	.	.	.	.	.
4ryy	4g/)	8g\L	[	.	.	.	4g/)	.	.
.	.	8f\J	.	.	.	.	.	.	.
=23	=23	=23	=23	=23	=23	=23	=23	=23	=23
!	!	!	!LO:DY:t=più f:rj	!	!	!	!	!	!LO:DY:t=più f
2G 2C\	4.ee/	(>8e\L	f	4e/)	.	.	(4.ee^\	przyj-	f
.	.	8a\	.	.	.	.	.	.	.
.	.	8g\)	.	4r	.	.	.	.	.
.	8cc/L	8e\	.	.	.	.	8cc\)	.	.
[4G\	8bn/	8d\	.	4r	.	.	8bn\L	-my	.
.	8dd/J	8f\J	.	.	.	.	8dd\J	.	.
*	*v	*v	*	*	*	*	*	*	*
!!LO:LB:g=original
=24	=24	=24	=24	=24	=24	=24	=24	=24
!	!	!	!	!	!LO:DY:t=più forte	!	!	!
8G]L 8C\	4.g 4.e/	.	(4.g^/	przyj-	f	2g/	dzie-	.
8c\	.	.	.	.	.	.	.	.
8G\	.	.	.	.	.	.	.	.
8c\	8e/L	.	8e/)	.	.	.	.	.
8G\	8f 8d/	.	8f/L	-my	.	4g/	-cię	.
8G\J	8dJ 8Bn/	.	8d/J	.	.	.	.	.
=25	=25	=25	=25	=25	=25	=25	=25	=25
*	*^	*	*	*	*	*	*	*
2G 2C\	4.ee/	(>8e\L	.	2c/	ży-	.	(4.ee^\	ży-	.
.	.	8a\	.	.	.	.	.	.	.
.	.	8g\)	.	.	.	.	.	.	.
.	8cc/L	8e\	.	.	.	.	8cc\)	.	.
[4G\	8bn/	8d\	.	4g/	-czeń	.	8bn\L	-czeń	.
.	8dd/J	8f\J	.	.	.	.	8dd\J	.	.
*	*v	*v	*	*	*	*	*	*	*
=26	=26	=26	=26	=26	=26	=26	=26	=26
8G]L 8C\	4.g 4.e/	.	(4.g/	na-	.	2g/	kwie-	.
8G\	.	.	.	.	.	.	.	.
8c\	.	.	.	.	.	.	.	.
8G\	8e/L	.	8e/)	.	.	.	.	.
8GG\	8f 8d/	.	8f/L	-szych	.	4g/	-cie	.
8G\J	8gJ 8d 8Bn/	.	8d/J	.	.	.	.	.
=27	=27	=27	=27	=27	=27	=27	=27	=27
*ped	*	*	*	*	*	*	*	*
8C'/L	8gL 8e 8c'/	.	4e/	kwiat,	.	8g/	w_twe-	.
!	!LO:TX:b:Bi:t=di_mi_nu_en_do:problem=dynamics with extension lines	!LO:HP:t=di_mi_nu_en_do	!	!	!	!LO:TX:a:Bi:t=di_mi_nu_en_do:problem=dynamics with extension lines	!	!LO:HP:t=di_mi_nu_en_do
8GG'/J	8gJ 8e 8c'/	>	.	.	.	8g	-go	>
(8C\L	4g 4e 4c'/	.	4r	.	.	4g/	świę-	.
8G\	.	.	.	.	.	.	.	.
8C\	4g 4e 4c'/	.	4r	.	.	4g/	-ta	.
8G\J)	.	.	.	.	.	.	.	.
!!LO:LB:g=original
=28	=28	=28	=28	=28	=28	=28	=28	=28
!	!	!	!LO:TX:a:Bi:t=di_mi_nu_en_do:problem=dynamics with extension lines	!	!LO:HP:t=di_mi_nu_en_do	!	!	!
8C'/L	8gL 8e 8c'/	.	8e/	w_twe-	>	2.g/	dniu	.
8GG'/J	8gJ 8e 8c'/	.	8e/	-go	.	.	.	.
(8C\L	4g 4e 4c'/	.	4e/	świę-	.	.	.	.
8G\	.	.	.	.	.	.	.	.
8C\	4g 4e 4c'/	.	4e/	-ta	.	.	.	.
*Xped	*	*	*	*	*	*	*	*
8G\J)	.	.	.	.	.	.	.	.
=29	=29	=29	=29	=29	=29	=29	=29	=29
*ped	*	*	*	*	*	*	*	*
8C'/L	8gL 8e-X 8c'/	.	2.e-X/	dniu,	.	8g/	w_twe-	.
8GG'/J	8gJ 8e- 8c'/	]	.	.	.	8g/	-go	.
(8C\L	4g 4e- 4c'/	.	.	.	.	4.cc\	świę-	.
8G\	.	.	.	.	.	.	.	.
8C\	4g 4e- 4c'/	.	.	.	.	.	.	.
8G\J)	.	.	.	.	.	8g/	-ta	.
=30	=30	=30	=30	=30	=30	=30	=30	=30
8C'/L	8gL 8e-X 8c'/	.	8e-X/	przyjm	.	2g/	dniu.	.
8GG'/J	8gJ 8e- 8c'/	.	8e-/	pa-	.	.	.	]
(8C/L	4g 4e- 4c'/	.	4e-/	-nien-	.	.	.	.
8GG/	.	.	.	.	.	.	.	.
8CC/)	4g 4e- 4c'/	.	4e-/	-ko.	]	4r	.	.
*Xped	*	*	*	*	*	*	*	*
8C/J	.	.	.	.	.	.	.	.
=31	=31	=31	=31	=31	=31	=31	=31	=31
*	*^	*	*	*	*	*	*	*
*ped	*	*	*	*	*	*	*	*	*
8FF 8FFF/	2a 2e-X/	4c\	.	[2.e-X/	Jak-	pp	8a/	Jak	pp
(8F\L	.	.	.	.	.	.	8cc\	li-	.
8c\	.	4r	.	.	.	.	4.cc\	-li-	.
*Xped	*	*	*	*	*	*	*	*	*
8F\	.	.	.	.	.	.	.	.	.
8B-\	4g 4e- 4c/	4ryy	.	.	.	.	.	.	.
8F\J)	.	.	.	.	.	.	8g/	-ja	.
!!LO:PB:g=original
=32	=32	=32	=32	=32	=32	=32	=32	=32	=32
*ped	*	*	*	*	*	*	*	*	*
8FF\L	2a 2e-X/	4c\	.	2.e-X/_	.	.	8a/	co	.
(8F\	.	.	.	.	.	.	8cc\	roz-	.
8c\	.	4r	.	.	.	.	4.cc\	-wi-	.
8F\	.	.	.	.	.	.	.	.	.
*Xped	*	*	*	*	*	*	*	*	*
8B-\	4g 4e-/	4c\	.	.	.	.	.	.	.
8F\J)	.	.	.	.	.	.	8g/	-ja	.
*	*v	*v	*	*	*	*	*	*	*
=33	=33	=33	=33	=33	=33	=33	=33	=33
(8c\L	8aL 8e-X'/	.	(2e-/]	.	>	8a/	z_wio-	<
8F\	8b-J 8e-'/	.	.	.	.	8b-\	-sną	.
8A\	4cc 4e-'/	.	.	.	.	4cc\	świe-	.
8F\	.	.	.	.	.	.	.	.
8B-\	4cc 4g 4en/	.	4en/	.	]	4cc\	-ży	[
8F\J)	.	.	.	.	.	.	.	.
=34	=34	=34	=34	=34	=34	=34	=34	=34
*	*^	*	*	*	*	*	*	*
*ped	*	*	*	*	*	*	*	*	*
(8FF/L	[2ff/	(8a\L	.	8f/)	.	.	[2ff\	kwiat	>
8C/	.	8cc\J	.	8f/	-by	.	.	.	.
8F/)	.	2f\)	.	(4.a/	kwiat	.	.	.	.
8A'/	.	.	.	.	.	.	.	.	.
*Xped	*	*	*	*	*	*	*	*	*
8c'/J	8ff/L]	.	.	.	.	.	8ff\L]	.	.
8r	8ee/J	.	.	8cc\)	.	.	8ee\J	.	]
*	*v	*v	*	*	*	*	*	*	*
=35	=35	=35	=35	=35	=35	=35	=35	=35
8BB-'\L	8.ddL 8.f/	.	8.b-\	zdro-	.	8.dd\	zdro-	.
(8F\	.	.	.	.	.	.	.	.
.	16ddJk 16f/	.	16b-\	-wo	.	16dd\	-wo	.
8B-\	4.ff 4.dd 4.f^/	.	4.dd^\	ho-	.	4.ff^\	ho-	.
8F\J)	.	.	.	.	.	.	.	.
8G 8GG\	.	.	.	.	.	.	.	.
8r	8dd 8b- 8f/	.	8b-\	-żo	.	8dd\	-żo	.
!!LO:LB:g=original
=36	=36	=36	=36	=36	=36	=36	=36	=36
8C'\L	4.dd 4.b- 4.e^/	.	4.b-^/	z_ła-	.	4.dd^\	z_ła-	.
(8G\	.	.	.	.	.	.	.	.
8C\	.	.	.	.	.	.	.	.
8G\	8ccL 8g 8e'/	.	8e/	-ską	.	8cc\	-ską	.
8C\J)	8b- 8g 8e'/	.	8g/	bo-	.	8b-\	bo-	.
8r	8gJ 8e 8c'/	.	8c/	-żą	.	8g/	-żą	.
=37	=37	=37	=37	=37	=37	=37	=37	=37
*	*^	*	*	*	*	*	*	*
8F'\L	8aL 8f'/	4ryy	.	8f/	żyj	.	8a/	żyj	.
8E'\J	8gJ 8c'/	.	<	8c/	ty-	.	8g/	ty-	.
4D\	4a/	8f\L	.	4f/	-sią-	.	4a/	-sią-	.
.	.	8e\	.	.	.	.	.	.	.
4G 4GG\	4bn/	8d\	.	4g/	-ce	.	4bn/	-ce	.
.	.	8g\J	.	.	.	.	.	.	.
=38	=38	=38	=38	=38	=38	=38	=38	=38	=38
(2A 2C\	(4.cc/	(>8f\L	<	4c/	lat!	.	4cc\	lat!	.
.	.	8c\J	.	.	.	.	.	.	.
.	.	4f\)	.	4r	.	.	4r	.	.
.	8cc#X/	.	.	.	.	.	.	.	.
.	8qee/	.	[	.	.	.	.	.	.
4G 4C\)	8dd/L	4e\	.	4r	.	.	4r	.	.
.	16b-/L	.	.	.	.	.	.	.	.
.	16g/JJ)	.	.	.	.	.	.	.	.
*	*v	*v	*	*	*	*	*	*	*
=39	=39	=39	=39	=39	=39	=39	=39	=39
*^	*	*	*	*	*	*	*	*
8C#X/L	2FF^\	8f/L	f	8f/	z_ła-	f	8f/	z_ła-	f
8F/	.	8f/J	.	8f/	-ską	.	8f/	-ską	.
8C#/	.	(4.ff 4.a 4.f^^\	.	4.a^^/	bo-	.	4.ff^^\	bo-	.
8F/	.	.	.	.	.	.	.	.	.
8D/	4FF\	.	.	.	.	.	.	.	.
8F/J	.	8ee 8cc 8e\)	.	8cc\	-żą	.	8ee\	-żą	.
*v	*v	*	*	*	*	*	*	*	*
!!LO:LB:g=original
=40	=40	=40	=40	=40	=40	=40	=40	=40
*	*^	*	*	*	*	*	*	*
8BB-\L	8eeL 8cc 8e/	2ryy	.	8cc\	wzro-	.	8ee\	wzro-	.
8F\	8ddJ 8b- 8d/	.	.	8b-\	-słaś	.	8dd\	-słaś	.
8BB-\	(>4cc#X 4a 4c#X/	.	.	(4a/	ho-	.	4cc#X\	ho-	.
8F\J	.	.	.	.	.	.	.	.	.
8GG\L	4dd/)	(>8b-L 8d\	.	8b-/)	-żo,	.	4dd\	-żo,	.
8G\J	.	16a\L	.	16a/LL	.	.	.	.	.
.	.	16g\JJ)	.	16g/JJ	.	.	.	.	.
*	*v	*v	*	*	*	*	*	*	*
=41	=41	=41	=41	=41	=41	=41	=41	=41
8DD\L	8ddL 8f#X'/	.	8f#X/	z_ła-	.	8dd\	z_ła-	.
8D\	8ee-XJ 8f#'/	.	8f#/	-ską	.	8ee-X\	-ską	.
8A\	(>4.dd 4.f# 4.d^/	.	4.f#^/	bo-	.	4.dd^\	bo-	.
8D\	.	.	.	.	.	.	.	.
8A\	.	.	.	.	.	.	.	.
8D\J	8cc 8f# 8d/)	.	8a/	-żą	.	8cc\	-żą	.
=42	=42	=42	=42	=42	=42	=42	=42	=42
*	*^	*	*	*	*	*	*	*
8GG/L	(<8ccL 8a/	2d\	.	8a/	zdro-	.	8cc\	zdro-	.
8D/	8b-J 8g/	.	.	8g/	-wo,	.	8b-\	-wo,	.
8G/	4dd 4b-/)	.	.	4.b-/	ho-	.	4dd\	ho-	.
8GG/J	.	.	.	.	.	.	.	.	.
8EE/L	4b- 4g/	4d\	.	.	.	.	4b-\	-żo	.
8E/J	.	.	.	16g/LL	-żo	.	.	.	.
.	.	.	.	16e/JJ	.	.	.	.	.
=43	=43	=43	=43	=43	=43	=43	=43	=43	=43
(8AA\L	8aL 8c#X'/	4ryy	<	8c#X/	żyj	.	8a/	-żyj	<
8E\	8aJ 8c#'/	.	.	8c#/	ty-	.	8a/	ty-	.
8G\	4b-/	4d\	.	4d/	-sią-	.	4b-/	-sią-	.
8E\	.	.	[	.	.	.	.	.	.
8B-\J)	4g/	8e\L	.	8e/L	-czek	.	4g/	-czek	[
8r	.	8d\J	.	8d/J	.	.	.	.	.
*	*v	*v	*	*	*	*	*	*	*
!!LO:PB:g=original
=44	=44	=44	=44	=44	=44	=44	=44	=44
*^	*	*	*	*	*	*	*	*
*ped	*	*	*	*	*	*	*	*	*
8AAL 8AAA\	2ryy	(2cc 2f#X 2e-X (2cn/	sf	(2cn/	lat	>	(2cc\	lat	>
8E-X\	.	.	>	.	.	.	.	.	.
8F#X\	.	.	.	.	.	.	.	.	.
*Xped	*	*	*	*	*	*	*	*	*
8A\J	.	.	.	.	.	.	.	.	.
4BB-/	8BB-\L	4b- 4g 4d/))	.	8d/L)	.	]	4b-\)	,	]
.	8G\J	.	]	8e/J	,	.	.	.	.
=45	=45	=45	=45	=45	=45	=45	=45	=45	=45
*	*	*^	*	*	*	*	*	*	*
(4A/	8C\L	8aL 8f/	4ryy	pp	8f/	żyj	pp	8a/	żyj	pp
.	8C\J	8ccJ 8c/	.	.	8a/	ty-	.	8cc\	ty-	.
4G/	4C\	4b-/	8d\L	.	4g/	-sią-	.	4b-\	-sią-	.
.	.	.	8f\	.	.	.	.	.	.	.
4B-/)	4C\	4g/	8e\	.	4c/	-czek	.	4g/	-czek	.
.	.	.	8c\J	.	.	.	.	.	.	.
*v	*v	*	*	*	*	*	*	*	*	*
*	*v	*v	*	*	*	*	*	*	*
=46	=46	=46	=46	=46	=46	=46	=46	=46
*ped	*	*	*	*	*	*	*	*
(8FF/L	(4.f 4.A/	.	4f/	lat!	.	4f/	lat!	.
8C/	.	<	.	.	.	.	.	.
8F/	.	.	4r	.	.	4r	.	.
*Xped	*	*	*	*	*	*	*	*
8A/	8a/	.	.	.	.	.	.	.
8c/J)	8cc/L	.	4c/	żyj	.	8cc\L	żyj	f
8r	8ffJ 8f/)	[	.	.	.	8ff\J	.	.
=47	=47	=47	=47	=47	=47	=47	=47	=47
*^	*^	*	*	*	*	*	*	*
4d/	2.C\	(4.ff^/	8b-\L	f	(4.d^>/	nam	.	(4.ff^\	nam	.
.	.	.	8g\J	.	.	.	.	.	.	.
4G/	.	.	4b-\	.	.	.	.	.	.	.
.	.	8ee/L)	.	.	8c/)	.	.	8ee\)	.	.
4B-/	.	8dd/	4g\	.	8B-/L	ty-	.	8dd\L	ty-	.
.	.	8cc/J	.	.	8g/J	.	.	8cc\J	.	.
*	*	*v	*v	*	*	*	*	*	*	*
!!LO:LB:g=original
=48	=48	=48	=48	=48	=48	=48	=48	=48	=48
8B-/L	2.C\	(>4.dd 4.f/	.	(4.f^>/	-sią-	.	(4.dd^\	-sią-	.
8G/J	.	.	>	.	.	.	.	.	.
4c/	.	.	.	.	.	.	.	.	.
.	.	8ccL 8e/)	.	8e/)	.	.	8cc\)	.	.
4G/	.	8b- 8d/	.	8d/L	-czek	.	8b-/L	-czek	.
.	.	8gJ 8e 8c/	]	8e/J	.	.	8g/J	.	.
*v	*v	*	*	*	*	*	*	*	*
=49	=49	=49	=49	=49	=49	=49	=49	=49
8FF'/L	2.a 2.f/	p	4f/	lat!	.	4a/	lat!	.
8C'/	.	.	.	.	.	.	.	.
(8F/	.	<	4r	.	.	4r	.	.
8G/	.	.	.	.	.	.	.	.
8A/	.	.	4r	.	.	4r	.	.
8c/J)	.	.	.	.	.	.	.	.
=50	=50	=50	=50	=50	=50	=50	=50	=50
2.r	(8f\L	<	4r	.	.	4r	.	.
.	8a\	.	.	.	.	.	.	.
.	8cc\	.	4r	.	.	4r	.	.
.	8ff\	.	.	.	.	.	.	.
.	8aa\	.	4a/	żyj	.	8cc\L	żyj	.
.	8ff\J)	[	.	.	.	8dd\J	.	.
=51	=51	=51	=51	=51	=51	=51	=51	=51
8CC/L	(>4.dd 4.g 4.e^/	f	(4.b-^\	nam	.	(4.dd^\	nam	.
8C/J	.	.	.	.	.	.	.	.
4c\	.	.	.	.	.	.	.	.
.	8cc 8a 8e/	.	8a/)	.	.	8cc\)	.	.
4C/	8b-L 8g 8e/	.	8g/L	ty-	.	8b-/L	ty-	.
.	8c/J)	.	8cc/J	.	.	8g/J	.	.
!!LO:LB:g=original
=52	=52	=52	=52	=52	=52	=52	=52	=52
8CC/L	(4.ff 4.b- 4.g^\	.	(4.dd^\	-sią-	.	(4.ff^\	-sią-	.
8C/J	.	.	.	.	.	.	.	.
4c\	.	.	.	.	.	.	.	.
.	8eeL 8b- 8g/)	.	8cc\)	.	.	8ee\)	.	.
4c 4C\	8dd 8b- 8e/	.	8b-/L	-czek	.	8dd\L	-czek	.
.	8ccJ 8b- 8e/	.	8g/J	.	.	8cc\J	.	.
=53	=53	=53	=53	=53	=53	=53	=53	=53
*ped	*	*	*	*	*	*	*	*
8F 8FF/	8ffL 8a'\	.	[2.a/	lat	.	[2.ff\	lat	.
8cL 8F'\	8aaJ 8ff 8a'\	.	.	.	>	.	.	>
8c 8F'\	8aaL 8ff 8a'\	.	.	.	.	.	.	.
!	!	!LO:HP:t=diminuendo	!	!	!	!	!	!
8c 8F'\	8ff 8a'\	>	.	.	.	.	.	.
8c 8F'\	8ff 8a'\	.	.	.	.	.	.	.
8cJ 8F'\	8ccJ 8a'\	.	.	.	.	.	.	.
=54	=54	=54	=54	=54	=54	=54	=54	=54
8cL 8F'\	8ccL 8a'\	.	2.a/_	.	.	2.ff\_	.	.
8A 8F'\	8dd 8a'\	.	.	.	.	.	.	.
8A 8F'\	8dd 8a'\	.	.	.	.	.	.	.
8c 8F'\	8cc 8a'\	.	.	.	.	.	.	.
8c 8F'\	8cc 8a'\	.	.	.	.	.	.	.
8cJ 8F'\	8aJ 8f'\	.	.	.	.	.	.	.
*Xped	*	*	*	*	*	*	*	*
=55	=55	=55	=55	=55	=55	=55	=55	=55
4A 4F'\	4f'/	.	4a/]	\!	]	4ff\]	\!	]
4F\	(4a 4f 4c/	p	4r	.	.	4r	.	.
4c 4F\	4cc 4a/	.	4r	.	.	4r	.	.
=56	=56	=56	=56	=56	=56	=56	=56	=56
4c 4F\	4ff 4a\)	.	2.r	.	.	2.r	.	.
(4AA/	(>4cc 4f 4c/	.	.	.	.	.	.	.
4C/	4a 4f 4c/	.	.	.	.	.	.	.
=57	=57	=57	=57	=57	=57	=57	=57	=57
2.A 2.F;\)	2.f 2.c;/)	.	2.r	.	.	2.r	.	.
==	==	==	==	==	==	==	==	==
*-	*-	*-	*-	*-	*-	*-	*-	*-
!!!system-decoration: <vox>{(klav)}
!!!RDF**kern: > = above
!!!RDF**kern: < = below
!!!ENC: Mateusz Solarz
!!!END: 2022-09-26
!!!ENC: Andrzej Kubiczek
!!!END: 2022-10-31
!!!YEC: Copyright 2022 Narodowy Instytut Fryderyka Chopina (https://polishscores.org)
!!!YEM: License CC-BY-4.0 (https://creativecommons.org/licenses/by/4.0)
